!!!COM:	Busnoys, Antoine
!!!CDT:	~1430///-1492/11/06
!!!OTL:	Acord&eacute;s moy
!!!AGN:	Song; Chanson
!!!SCT:	Bus3001
!!!SCA:	Bus3001
!!!voices:	4
**kern	**kern	**kern	**kern
*staff4	*staff3	*staff2	*staff1
*Ivox	*Ivox	*Ivox	*Ivox
*I"Bassus	*I"Contratenor	*I"Tenor	*I"Superius
*I'B	*I'Ct	*I'T	*I'S
*clefF4	*clefF4	*clefGv2	*clefG2
*k[b-]	*k[b-]	*k[b-]	*k[b-]
*M2/1	*M2/1	*M2/1	*M2/1
*met(C|)	*met(C|)	*met(C|)	*met(C|)
=1-	=1-	=1-	=1-
!!LO:TX:Z=12:t=Rondeau
0r	0r	0r	0r
=2	=2	=2	=2
1r	0r	1r	0r
1G	.	1G	.
=3	=3	=3	=3
1.G	0r	1.B-	0r
2E	.	2G	.
=4	=4	=4	=4
1F	0r	1A	0r
1G	.	1B-	.
=5	=5	=5	=5
1r	0r	1G	0r
1B-	.	1r	.
=6	=6	=6	=6
1B-	0r	1d	0r
1A	.	2c	.
.	.	2f	.
=7	=7	=7	=7
2G	0r	2e	0r
4F	.	2.d	.
4E	.	.	.
2D	.	.	.
.	.	4B-	.
2E	.	2c	.
=8	=8	=8	=8
2F	0r	2d	0r
1G	.	4c	.
.	.	4B-	.
.	.	1A	.
2F#i	.	.	.
=9	=9	=9	=9
1G	1r	1G	1r
1r	1G	1r	1g
=10	=10	=10	=10
0r	1.B-	0r	1.g
.	2G	.	2e
=11	=11	=11	=11
0r	1A	0r	1f
.	1B-	.	1g
=12	=12	=12	=12
0r	1G	0r	1r
.	2r	.	1b-
.	[2G	.	.
=13	=13	=13	=13
0r	2G]	0r	1b-
.	2.d	.	.
.	.	.	1a
.	4c	.	.
.	2A	.	.
=14	=14	=14	=14
0r	2B-	0r	2g
.	4A	.	4f
.	4G	.	4e
.	2F	.	2.d
.	2G	.	.
.	.	.	4e
=15	=15	=15	=15
0r	2A	0r	2f
.	2B-	.	1g
.	1A	.	.
.	.	.	2f#i
=16	=16	=16	=16
1r	1G	0B-	0g
1G	1r	.	.
=17	=17	=17	=17
2A	0r	1A	0r
1F#i	.	.	.
.	.	1A	.
4E	.	.	.
4F#i	.	.	.
=18	=18	=18	=18
1G	1r	1G	0b-
1r	1G	1G	.
=19	=19	=19	=19
0r	2A	1c	1a
.	1F#i	.	.
.	.	1c	1a
.	4E	.	.
.	4F#i	.	.
=20	=20	=20	=20
0r	2G	1B-	1g
.	2.B-	.	.
.	.	1G	1g
.	4A	.	.
.	[2G	.	.
=21	=21	=21	=21
0r	2G]	0A	1cc
.	4F#i	.	.
.	4E	.	.
.	1F#i	.	1cc
=22	=22	=22	=22
1.G	0r	0G	1.b-
4F	.	.	4a
4E	.	.	4g
=23	=23	=23	=23
2F	1.c	1r	2a
2E	.	.	1g
1C	.	1c	.
.	2A	.	4f
.	.	.	4e
=24	=24	=24	=24
0r	2B-	2B-	2d
.	1B-	1d	1f
.	4A	4c	2g
.	4G	4B-	.
=25	=25	=25	=25
0FF	2.F	4c	2.a
.	.	4B-	.
.	.	4A	.
.	4E	4G	4b-
.	1C	1A	1cc
=26	=26	=26	=26
4GG	1r	1G	2b-
2BB-	.	.	.
.	.	.	2g
4C	.	.	.
2AA	2r	2F	2a
2r	4GG	[2G	[2b-
.	[4BB-	.	.
=27	=27	=27	=27
1r	4BB-]	2G]	4b-]
.	4C	.	4a
.	2AA	2A	2f
1GG	2r	2B-	2g
.	2D	4A	2b-
.	.	4G	.
=28	=28	=28	=28
1AA	2C	2F	2a
.	2.F	2.A	2.cc
1FF	.	.	.
.	4G	4B-	4b-
.	2A	2c	2a
=29	=29	=29	=29
0GG	1D	2B-	2g
.	.	1d	1b-
.	1G	.	.
.	.	4c	4a
.	.	4B-	4g
=30	=30	=30	=30
[0D	1r	[0A	[0f#
.	1d	.	.
=31	=31	=31	=31
0D]N	0dN	0A]N	0f#]N
=32	=32	=32	=32
1.B-	0r	0r	0d
4A	.	.	.
4G	.	.	.
=33	=33	=33	=33
4A	0r	0r	1c
4G	.	.	.
4F	.	.	.
4E	.	.	.
2D	.	.	1B-
2G	.	.	.
=34	=34	=34	=34
2A	0r	0r	0A
1F#i	.	.	.
2E	.	.	.
=35	=35	=35	=35
1G	1.B-	0d	0G
1r	.	.	.
.	4A	.	.
.	4G	.	.
=36	=36	=36	=36
0r	4A	1c	0r
.	4G	.	.
.	4F	.	.
.	4E	.	.
.	2D	1B-	.
.	2G	.	.
=37	=37	=37	=37
0r	2A	0A	1r
.	1F#i	.	.
.	.	.	1c
.	2E	.	.
=38	=38	=38	=38
1.GG	1G	1G	2.B-
.	.	.	4A
.	1r	[1d	2G
[2BB-	.	.	[2F
=39	=39	=39	=39
4BB-]	0r	2d]	2F]
4AA	.	.	.
2GG	.	2B-	2G
1FF	.	1c	1A
=40	=40	=40	=40
0r	1.GG	2.B-	1G
.	.	4A	.
.	.	2G	[1d
.	[2BB-	[2F	.
=41	=41	=41	=41
0r	4BB-]	2F]	2d]
.	4AA	.	.
.	2GG	2G	2B-
.	1FF	1A	1c
=42	=42	=42	=42
1.GG	0r	1.G	2.B-
.	.	.	4c
.	.	.	2e-i
[2BB-	.	2F	[2d
=43	=43	=43	=43
4BB-]	1F	1D	4d]
4C	.	.	4c
2D	.	.	4B-
.	.	.	4A
1AA	1A	1E	1c
=44	=44	=44	=44
0BB-	2G	1.D	2d
.	2F	.	2.f
.	1D	.	.
.	.	.	4e
.	.	[2G	[2d
=45	=45	=45	=45
1AA	3EV	2G]	4d]
.	.	.	4c
.	3%2CZ	.	.
.	.	2F	2A
1GG	1D	2G	1B-
.	.	2E	.
=46	=46	=46	=46
1D	1r	0F#i	1A
1r	1D	.	1r
=47	=47	=47	=47
1AA	1r	1r	0a
1r	1AA	1F#i	.
=48	=48	=48	=48
1GG	1r	1G	1b-
1r	1GG	1G	1b-
=49	=49	=49	=49
1FF	1r	1A	1cc
1r	1FF	1A	1cc
=50	=50	=50	=50
1GG	1r	1.G	1.b-
1r	1GG	.	.
.	.	4F	4a
.	.	4E	4g
=51	=51	=51	=51
2GG	1G	1D	2.b-
2BB-	.	.	.
.	.	.	4a
2AA	2A	2r	2f
[2GG	[2B-	[2d	[2b-
=52	=52	=52	=52
1GG]	2B-]	2d]	4b-]
.	.	.	4a
.	2d	2B-	4g
.	.	.	4f
1AA	1A	1c	1e
=53	=53	=53	=53
1BB-	2.F	1d	2d
.	.	.	2f
.	4G	.	.
1r	2A	2c	2e
.	[2D	[2B-	[2d
=54	=54	=54	=54
1r	4D]	4B-]	2d]
.	4E	4G	.
.	2F	2A	2c
1GG	1BB-	2B-	2d
.	.	4A	4c
.	.	4G	4B-
=55	=55	=55	=55
2D	1r	2F	2A
2.BB-	.	2.G	2G
.	1D	.	2.d
4AA	.	4A	.
2GG	.	4B-	.
.	.	4c	4e
=56	=56	=56	=56
2D	1r	2A	2f
2E	.	2G	2g
2F	2D	2.d	2.a
[2D	[2F	.	.
.	.	4e	4g
=57	=57	=57	=57
4D]	4F]	2f	2a
4C	4E	.	.
4BB-	2F	1d	1b-
4AA	.	.	.
1GG	1G	.	.
.	.	4c	4a
.	.	4B-	4g
=58	=58	=58	=58
2r	2D	2A	2f
1GG	1G	2B-	2g
.	.	2d	2b-
2AA	2E	[2c	[2a
=59	=59	=59	=59
2FF	2F	4c]	4a]
.	.	4B-	4g
2GG	2D	4A	4f#i
.	.	4G	4e
1D	2r	1A	1f#i
.	2D	.	.
=60	=60	=60	=60
0GGl	2.E-i	0Gl	0gl
.	4D	.	.
.	1Dl	.	.
==	==	==	==
*-	*-	*-	*-
!!!RDF**kern: l=long note in original notation
!!!RDF**kern: i=editorial accidental
!!!RDF**kern: V=start of tuplet marker
!!!RDF**kern: Z=end of tuplet marker
!!!RDF**kern: N=signum congruentiae
!!!ENC:	Chris Gage 04-20-2015
!!!END:	2015/05/01/
!!!EED:	Jesse Rodin
!!!EEV:	2015/05/10/
!!!ONB:	Translated from MusicXML and edited on 2015/05/10/ by Craig Sapp
!!muse2ps: C^@{COM}^i2I150v85,85,85,150Q16
